X: 23030
T: Last Night's Joy
R: reel
M: 4/4
K: Dmajor
A2AG FGAB|=c2cG EFGE|A2AG FDFA|Bdeg fdec|
A2AG FGAB|=c2cG EFGE|A2AG FDFA|Bdeg fdde||
f2df afdf|e2ce gece|f2df afdB|ceag fdde|
f2df afdf|e2ce gece|faaf gfed|Bdeg fdec||

